X: 20121
M: 2/4
L: 1/8
K: D
[|\
~d3e | f>ed>B | A2F2 | A3z |\
f2e>f | g2f2 | e>de>f | e3z |\
d3e | f>ed>c | B2g2 | Hg3e |
f2g>a | A2B>c | d2f2 | d3d |\
c3d | e>AB>c | d2e2 | "_Bold."f3z |\
f<g ag | (gfed) | e2^g2 |
a4 ({A/c/e/d/}) ({c/e/g/f/}) {e/Ha/g/e/} |\
d3e f>ed>B | A>FA>d | f4 |d>Ad>f |\


